astro/public/img/icons/user-registration.svg

<?xml version="1.0" encoding="UTF-8"?>
<svg width="54px" height="54px" viewBox="0 0 54 54" version="1.1" xmlns="http://www.w3.org/2000/svg" xmlns:xlink="http://www.w3.org/1999/xlink">
    <title>user-registration</title>
    <g id="user-registration" stroke="none" stroke-width="1" fill="none" fill-rule="evenodd">
        <g id="icons8-add-user-male" transform="translate(6, 3)" fill-rule="nonzero">
            <circle id="Oval" fill="#FEAE42" cx="18" cy="9" r="9"></circle>
            <path d="M27,24 L9,24 C4.029,24 0,28.029 0,33 L0,42 L18,42 L29.676,24.405 C28.83,24.141 27.933,24 27,24 Z" id="Path" fill="#6366F1"></path>
            <path d="M35.61,30.39 L24,42 L18,42 L18,36 L29.61,24.39 C32.49,25.26 34.74,27.51 35.61,30.39 Z" id="Path" fill="#A2E4F4"></path>
            <polygon id="Path" fill="#00B569" points="42 42 36 42 36 48 30 48 30 42 24 42 24 36 30 36 30 30 36 30 36 36 42 36"></polygon>
        </g>
    </g>
</svg>

<svg xmlns="http://www.w3.org/2000/svg" width="54" height="54"><g fill="none" transform="translate(6 3)"><circle cx="18" cy="9" r="9" fill="#FEAE42"/><path fill="#6366F1" d="M27 24H9a9 9 0 0 0-9 9v9h18l11.676-17.595A8.96 8.96 0 0 0 27 24Z"/><path fill="#A2E4F4" d="M35.61 30.39 24 42h-6v-6l11.61-11.61c2.88.87 5.13 3.12 6 6Z"/><path fill="#00B569" d="M42 42h-6v6h-6v-6h-6v-6h6v-6h6v6h6z"/></g></svg>
